X: 20633
T: BETTY PRINGLE'S PIG
C: J. B. Sale.
Q: "Lively."
%R: reel
B: W. Hamilton "Universal Tune-Book" Vol. 2 Glasgow 1846 p.63 #3
S: http://s3-eu-west-1.amazonaws.com/itma.dl.printmaterial/book_pdfs/hamiltonvol2web.pdf
Z: 2016 John Chambers <jc:trillian.mit.edu>
M: C
L: 1/8
K: G
% - - - - - - - - - - - - - - - - - - - - - - - - -
|:\
B2Bc d2d2 | dBcA B2z2 |\
B2Bc dcBd | edcB A2z2 :|\
Bcde d3g | dcBc B2G2 |\
ABcd c2z2 | c2B2 A2D2 |\
dddd d3B | c2B2 A2z2 |\
dddd d3G |
F2G2 HD2z2 |\
d2BG A2FD |d2BG A2FD |\
GGGG AAAA | BBA2 G2z2 |\
d2BG A2FD | d2BG A2FD |\
GGGG AAAA | BBA2 G2z2 |]
% - - - - - - - - - - - - - - - - - - - - - - - - -
